robot-excited-outline.svg

<svg fill="currentColor" viewBox="0 0 24 24"><path d="M22 14h-1c0-3.87-3.13-7-7-7h-1V5.73A2 2 0 1 0 10 4c0 .74.4 1.39 1 1.73V7h-1c-3.87 0-7 3.13-7 7H2c-.55 0-1 .45-1 1v3c0 .55.45 1 1 1h1v1a2 2 0 0 0 2 2h14c1.11 0 2-.89 2-2v-1h1c.55 0 1-.45 1-1v-3c0-.55-.45-1-1-1m-1 3h-2v3H5v-3H3v-1h2v-2c0-2.76 2.24-5 5-5h4c2.76 0 5 2.24 5 5v2h2zM8.5 13.5l2.36 2.36-1.18 1.18-1.18-1.18-1.18 1.18-1.18-1.18zm7 0 2.36 2.36-1.18 1.18-1.18-1.18-1.18 1.18-1.18-1.18z"/></svg>

<svg  viewBox="0 0 24 24" fill="currentColor"><path  d="M22 14H21C21 10.13 17.87 7 14 7H13V5.73C13.6 5.39 14 4.74 14 4C14 2.9 13.11 2 12 2S10 2.9 10 4C10 4.74 10.4 5.39 11 5.73V7H10C6.13 7 3 10.13 3 14H2C1.45 14 1 14.45 1 15V18C1 18.55 1.45 19 2 19H3V20C3 21.11 3.9 22 5 22H19C20.11 22 21 21.11 21 20V19H22C22.55 19 23 18.55 23 18V15C23 14.45 22.55 14 22 14M21 17H19V20H5V17H3V16H5V14C5 11.24 7.24 9 10 9H14C16.76 9 19 11.24 19 14V16H21V17M8.5 13.5L10.86 15.86L9.68 17.04L8.5 15.86L7.32 17.04L6.14 15.86L8.5 13.5M15.5 13.5L17.86 15.86L16.68 17.04L15.5 15.86L14.32 17.04L13.14 15.86L15.5 13.5Z"/></svg>
